X: 961
T: Tennessee Blues
C:Bill Monroe
B: jims roots
M:2/4
L:1/16
Q: 1/4=100
K:A
V:1 
%N:ABC'd by Jim Kendrick
A2 [A2a]aa ||"A"a2a2 a2aa | aa=gf e=c^ca | aaaa aaa2 | ecBc A2ea |
aaaa aaaa | aa=gf e=c^ca | aaaa aaaf | e=cBc AAA=F ||
"D"^FABA =cBAF | FABA =cBAF | FABA =cBFA | AABA =cBAA |
"A"A2AA Aeef | "E"=gefe yJ[ee]eee | [ee][ee][ee][ee] eeee | B=cBc BAFA |
"A"AAB=c BAFA | A2AA A || [P:B part]=g^g | "A"aaaa aaaa|aaaa aaaa|
=c'^c'c'c' c'c'c'c'|c'c'c'c' c'c'z_e'| _e'=e'e'e' e'e'e'e'|
e'e'e'e' e'e'z_g'|"A7"_g'=g'g'g' g'g'g'g'|g'2e'2 c'4 ||
"D"JFAAB =cBA2 | FABA =cBFA | "A"AABA =cBAA | A2AA A2ee |
"E"=gefe J[ee][ee][ee][ee] | [ee][ee][ee][ee] [ee][ee][ee][ee]| B=cBc BAFA | AAB=c BAFA | "A"A2A2z4 |]
% abcbook-tune_id 6298c297e9d51b821e47e06d


% abcbook-boost 0
% abcbook-tablature 
% abcbook-transpose 
% abcbook-lastupdated 1654178455965
% abcbook-soundfonts 
% abcbook-repeats 1


